svg/fluentui-system-icons/ic_fluent_heart_48_filled.svg

<svg width="48" height="48" viewBox="0 0 48 48" fill="none" xmlns="http://www.w3.org/2000/svg">
<path d="M21.2625 10.1788C17.5699 7.38916 12.508 7.27007 8.68827 9.88299C3.03756 13.7484 2.37962 21.8357 7.33123 26.5636L23.1367 41.6552C23.6198 42.1165 24.3801 42.1165 24.8632 41.6552L40.6663 26.5643C45.6178 21.836 44.9594 13.7485 39.3083 9.88324C35.4874 7.26982 30.424 7.38991 26.7313 10.1815L23.9997 12.2466L21.2625 10.1788Z" fill="#212121"/>
</svg>

<svg xmlns="http://www.w3.org/2000/svg" width="48" height="48"><path d="M21.262 10.179a10.771 10.771 0 0 0-12.574-.296c-5.65 3.865-6.308 11.953-1.357 16.68l15.806 15.092a1.25 1.25 0 0 0 1.726 0l15.803-15.09c4.952-4.729 4.293-12.817-1.358-16.682a10.772 10.772 0 0 0-12.577.299L24 12.246l-2.738-2.068Z"/></svg>
